X:21
T:O'Carolan's Devotion
R:carolan
C:Turlough O'Carolan (1670-1738)
H:Also played in Gdor, #22
Z:id:hn-carolan-21
M:3/4
L:1/8
K:Ador
a>b | c'2 c'/b/a a/b/c' | g2 e>f g2 | edcB A>G | G4 A>B |
c2 c/d/e e/d/c | d2 egae | dcBA A>A | A4 :|
A>G | E2 G2 G2 | G>A G=FE>D | E2 A2 A2 | A>B AG F>E |
E2 c2 c2 | c>dc>BA>B | G2 g2 g2 | g4 a>b |
c'2 c'>ba>b | c'2 e2 e2 | e>d c>de>f | g2 B2 B2 |
c>B A>Bc>d | e2 A2 G/A/B | AG F>EE>F | E4 ef |
g2 g/a/b g/a/b | ag fe e/f/g | ed cB AG | G4 G/A/B |
c2 c/d/e e/d/c | d2 egae | dcBA A>A | A4 ||
<end>
<start>
